!! 00000] TT[00
!! NN
!!!OTL: Wo sui hongjun nao geming
!!!ARE: Asia, China,ÿSichuan, Daxian
!! Ethnic Group: Han
!! II, 232
!!!SCT: C0226
!!!YEM: Copyright 1995, estate of Helmut Schaffrath.
**kern
*ICvox
*Ivox
*M2/4
*k[f#c#g#]
*A:
{8.b
16cc#
8b
8cc#
=1
8b
4cc#
16cc#
16ee
=2
8b
16cc#
16b
4b}
=3
{8b
4cc#
16cc#
16ee
=4
8b
16cc#
16b
4b}
=5
{16b
16cc#
16b
16cc#
8b
8cc#
=6
8ee
16cc#
16ee
4cc#}
=7
{8.b
16ee
8cc#
8b
=8
16b
16cc#
8f#
4a}
=9
{8b
8cc#
8a
8b
=10
8b
8a
4f#}
==
!!!AGN: Shange, Manganyang. Geming lishi minge
!! jetzt: "revolutionaeres historisches Volkslied"
!!    Vereinzelt Verzierungen.
!!!ONB: ESAC (Essen Associative Code) Database: CHINA
!!!AMT: simple duple
!!!AIN: vox
!!!EED: Helmut Schaffrath
!!!EEV: 1.0
*-
